X:1
T: The Honorable Miss Rollo
C:
R:Reel
Q: 232
K:D
M:4/4
L:1/8
|:g|f2 df ec dA|Bd AF Ee eg|f2 df ec dA|Bb ag fd dg|
f2 df ec dA|Bd AF Ee eg|f2 df ec dA|Bb ag fd df|
ab ag fd ad|cd ed cA Af|ab ag fd ad|ge fg1/2a1/2 fd df|
ab ag fd ad|cd ed cA Af|dA BG FG Ag|fa eg fd d:|
